src/assets/icons/hero/6.svg

<svg width="77" height="32" viewBox="0 0 77 32" fill="none" xmlns="http://www.w3.org/2000/svg">
<path d="M61.403 19.7286C56.711 19.7286 55.856 16.9816 55.856 16.3006H59.254C59.254 16.7006 59.789 17.1796 60.24 17.3746C60.6146 17.5199 61.0155 17.5853 61.417 17.5666H61.411C62.368 17.5666 63.153 17.3316 63.153 16.7686C63.153 16.0826 62.349 15.9306 61.463 15.8026C59.05 15.4496 55.669 15.0396 55.669 12.3046C55.669 9.75356 58.418 8.45556 61.336 8.45556C66.008 8.45556 67.246 11.0786 67.246 11.8376H63.793C63.7725 11.645 63.7037 11.4607 63.5928 11.302C63.482 11.1432 63.3327 11.0151 63.159 10.9296L63.152 10.9266C62.732 10.7105 62.2673 10.5957 61.795 10.5916H61.793C60.503 10.5916 59.777 10.8636 59.777 11.4626C59.777 11.9516 60.431 12.1946 61.371 12.3576C63.824 12.7846 67.59 12.9326 67.59 15.9566C67.59 17.4926 66.277 19.7266 61.404 19.7266L61.403 19.7286ZM55.639 10.0536L54.316 11.5116H53.766L54.372 9.92156H53.16V7.80156H55.639V10.0536ZM47.949 8.71056H52.34V19.4236H47.949V8.71056ZM42.223 19.4446H38.386L32.657 8.73056H37.827L41.115 15.2426L41.205 15.4386L41.287 15.2426L44.361 8.73056H47.465L42.223 19.4446ZM33.98 14.9936H25.094C25.105 15.3347 25.185 15.6701 25.3291 15.9796C25.4732 16.289 25.6785 16.5661 25.9326 16.794C26.1866 17.022 26.4842 17.1962 26.8074 17.3061C27.1305 17.416 27.4726 17.4594 27.813 17.4336L27.804 17.4346C28.2591 17.4575 28.7127 17.3654 29.1228 17.1669C29.533 16.9683 29.8866 16.6697 30.151 16.2986L30.157 16.2906H33.7C32.542 18.9876 30.295 19.7536 27.233 19.7536C23.25 19.7536 20.434 17.5686 20.434 14.1066C20.434 10.4096 23.208 8.45856 27.233 8.45856C31.736 8.45856 33.994 11.4156 33.994 14.2616C34.0056 14.5127 33.9999 14.7642 33.977 15.0146L33.98 14.9936ZM20.359 19.4276H10.232V8.73956H14.785V16.5196H20.359V19.4276ZM72.236 -0.0004375C72.268 0.0665625 72.304 0.131563 72.334 0.200563C72.602 0.807563 72.758 1.51656 72.758 2.26156V2.30656V2.30456V2.35856C72.758 3.11256 72.602 3.82956 72.321 4.47956L72.334 4.44456C72.0632 5.07855 71.675 5.65567 71.19 6.14556C70.7187 6.61911 70.1596 6.99616 69.544 7.25556L69.51 7.26856C68.8718 7.53522 68.1867 7.67156 67.495 7.66956H67.46H67.462H67.433C66.703 7.66956 66.007 7.52256 65.374 7.25556L65.409 7.26856C64.7761 7.00842 64.2003 6.62691 63.714 6.14556C63.2341 5.66644 62.8487 5.10126 62.578 4.47956L62.565 4.44456C62.2824 3.78552 62.1378 3.07561 62.14 2.35856V2.30156V2.30456V2.26156C62.14 1.51656 62.296 0.808562 62.578 0.167562L62.565 0.200563C62.595 0.131563 62.631 0.0665625 62.664 -0.0004375H0.000976562L7.40998 31.9996C22.965 21.8636 37.914 31.6046 38.516 31.9756H38.518L38.522 31.9726H38.53L38.534 31.9746L38.537 31.9756C39.137 31.6036 54.088 21.8636 69.642 31.9996L77.05 -0.0004375H72.236ZM27.148 10.6986H27.131C26.5878 10.6986 26.0669 10.9143 25.6828 11.2984C25.2987 11.6825 25.083 12.2034 25.083 12.7466L25.085 12.8466V12.8416H29.386C29.4048 12.546 29.3586 12.25 29.2507 11.9742C29.1428 11.6985 28.9757 11.4497 28.7614 11.2454C28.547 11.0412 28.2905 10.8863 28.0098 10.7919C27.7292 10.6974 27.4312 10.6655 27.137 10.6986L27.146 10.6976L27.148 10.6986ZM64.35 5.58056C64.7461 5.99674 65.2226 6.32801 65.7507 6.55424C66.2789 6.78048 66.8474 6.89694 67.422 6.89656H67.464H67.462H67.499C68.104 6.89656 68.679 6.76756 69.198 6.53556L69.172 6.54656C69.6895 6.31869 70.1571 5.99113 70.548 5.58256L70.55 5.58056C70.935 5.17356 71.245 4.69156 71.457 4.15956L71.468 4.12956C71.678 3.60256 71.8 2.99056 71.8 2.35156V2.30256V2.30456V2.26856C71.8007 1.65735 71.6839 1.0517 71.456 0.484563L71.467 0.516563C71.3919 0.33122 71.305 0.150854 71.207 -0.0234375L71.219 -0.0004375H69.717C69.864 0.265563 69.95 0.583562 69.95 0.921562L69.949 0.991562V0.988562C69.9691 1.21636 69.9377 1.44577 69.8571 1.65975C69.7764 1.87373 69.6485 2.06679 69.483 2.22456L69.482 2.22556C69.167 2.48556 68.768 2.65556 68.332 2.69056H68.325L70.09 5.45156H69.059L67.38 2.76256H66.363V5.45156H65.404V-0.0004375H63.681C63.601 0.139563 63.518 0.309563 63.445 0.484563L63.433 0.515562C63.2117 1.07238 63.099 1.66639 63.101 2.26556V2.30456V2.30256V2.35056C63.101 2.98956 63.223 3.60056 63.445 4.16056L63.433 4.12756C63.655 4.69056 63.965 5.17256 64.352 5.58156L64.35 5.58056ZM67.979 1.95356C68.168 1.94256 68.343 1.89956 68.504 1.82856L68.494 1.83256C68.6406 1.76865 68.7651 1.66291 68.852 1.52856L68.854 1.52556C68.94 1.37556 68.99 1.19656 68.99 1.00556L68.988 0.943563V0.946563L68.989 0.903562C68.989 0.741154 68.9466 0.58156 68.866 0.440563L68.868 0.445563C68.7916 0.326186 68.6859 0.2284 68.561 0.161563L68.557 0.159562C68.4222 0.0901449 68.2763 0.044797 68.126 0.0255625L68.119 0.0245625C68.0489 0.0141528 67.9786 0.00614807 67.908 0.0005625H66.362V1.97556H67.364C67.5806 1.97556 67.7853 1.96856 67.978 1.95456L67.979 1.95356Z" fill="black"/>
</svg>

<svg
  xmlns="http://www.w3.org/2000/svg"
  height="32"
  width="77"
>
  <path
    fill="#c41230"
    d="M61.403 19.729c-4.692 0-5.547-2.747-5.547-3.428h3.398c0 .4.535.879.986 1.074a2.882 2.882 0 0 0 1.177.192h-.006c.957 0 1.742-.235 1.742-.798 0-.686-.804-.838-1.69-.966-2.413-.353-5.794-.763-5.794-3.498 0-2.551 2.749-3.849 5.667-3.849 4.672 0 5.91 2.623 5.91 3.382h-3.453a1.147 1.147 0 0 0-.634-.908l-.007-.003a3.024 3.024 0 0 0-1.357-.335h-.002c-1.29 0-2.016.272-2.016.871 0 .489.654.732 1.594.895 2.453.427 6.219.575 6.219 3.599 0 1.536-1.313 3.77-6.186 3.77zm-5.764-9.675-1.323 1.458h-.55l.606-1.59H53.16v-2.12h2.479zm-7.69-1.343h4.391v10.713h-4.391zm-5.726 10.734h-3.837L32.657 8.731h5.17l3.288 6.512.09.196.082-.196 3.074-6.512h3.104zm-8.243-4.451h-8.886a2.529 2.529 0 0 0 2.719 2.44l-.009.001a2.714 2.714 0 0 0 2.347-1.136l.006-.008H33.7c-1.158 2.697-3.405 3.463-6.467 3.463-3.983 0-6.799-2.185-6.799-5.647 0-3.697 2.774-5.648 6.799-5.648 4.503 0 6.761 2.957 6.761 5.803a5.486 5.486 0 0 1-.017.753l.002-.021zm-13.621 4.434H10.232V8.74h4.553v7.78h5.574zM72.236 0c.032.067.068.132.098.201.268.607.424 1.316.424 2.061v.045-.002.054c0 .754-.156 1.471-.437 2.121l.013-.035a5.473 5.473 0 0 1-1.144 1.701 5.135 5.135 0 0 1-1.646 1.11l-.034.013a5.188 5.188 0 0 1-2.015.401h-.035.002-.029c-.73 0-1.426-.147-2.059-.414l.035.013a5.243 5.243 0 0 1-1.695-1.123 5.403 5.403 0 0 1-1.136-1.666l-.013-.035a5.253 5.253 0 0 1-.425-2.086v-.057.003-.043c0-.745.156-1.453.438-2.094l-.013.033c.03-.069.066-.134.099-.201H.001L7.41 32c15.555-10.136 30.504-.395 31.106-.024h.002l.004-.003h.008l.004.002.003.001c.6-.372 15.551-10.112 31.105.024L77.05 0zM27.148 10.699h-.017a2.048 2.048 0 0 0-2.048 2.048l.002.1v-.005h4.301a2.027 2.027 0 0 0-2.249-2.143l.009-.001zM64.35 5.581a4.237 4.237 0 0 0 3.072 1.316h.042-.002.037c.605 0 1.18-.129 1.699-.361l-.026.011a4.306 4.306 0 0 0 1.376-.964l.002-.002c.385-.407.695-.889.907-1.421l.011-.03c.21-.527.332-1.139.332-1.778v-.049.002-.036a4.77 4.77 0 0 0-.344-1.784l.011.032a4.705 4.705 0 0 0-.26-.54l.012.023h-1.502c.147.266.233.584.233.922l-.001.07V.989a1.522 1.522 0 0 1-.466 1.236l-.001.001c-.315.26-.714.43-1.15.465h-.007l1.765 2.761h-1.031L67.38 2.763h-1.017v2.689h-.959V0h-1.723c-.08.14-.163.31-.236.485l-.012.031a4.697 4.697 0 0 0-.332 1.75v.039-.002.048c0 .639.122 1.25.344 1.81l-.012-.033c.222.563.532 1.045.919 1.454l-.002-.002zm3.629-3.627c.189-.011.364-.054.525-.125l-.01.004a.813.813 0 0 0 .358-.304l.002-.003c.086-.15.136-.329.136-.52l-.002-.062v.003l.001-.043a.933.933 0 0 0-.123-.463l.002.005a.828.828 0 0 0-.307-.284L68.557.16a1.302 1.302 0 0 0-.431-.134l-.007-.001a3.097 3.097 0 0 0-.211-.024h-1.546v1.975h1.002q.325 0 .614-.021z"
  ></path>
</svg>
